localPackages/DesignSystem/Sources/DesignSystem/Resources/Assets.xcassets/IconSet/ic-reply-all.imageset/ic-reply-all.svg

<svg width="24" height="24" viewBox="0 0 24 24" fill="none" xmlns="http://www.w3.org/2000/svg">
<g id="ic-reply-all">
<path id="Icon" fill-rule="evenodd" clip-rule="evenodd" d="M12.1977 3.22038C12.4121 3.00548 12.7348 2.94096 13.0153 3.05693C13.2958 3.1729 13.4787 3.4465 13.4787 3.75002L13.4788 8.28348C14.2111 8.33643 15.4113 8.47386 16.7234 8.83203C18.3219 9.26836 20.1648 10.0533 21.5069 11.4876C22.9959 13.0789 23.602 15.1961 23.8445 16.902C24.0889 18.6212 23.9782 20.0246 23.9541 20.2845C23.9386 20.4525 23.865 20.6315 23.7164 20.7707C23.5738 20.9042 23.4057 20.9606 23.2632 20.9733C22.9912 20.9975 22.7349 20.8754 22.5795 20.6672C19.2747 16.238 15.0888 15.7365 13.4788 15.7203L13.4787 20.25C13.4787 20.5535 13.2958 20.8271 13.0153 20.9431C12.7348 21.0591 12.4121 20.9946 12.1977 20.7797L3.96899 12.5297C3.67701 12.2369 3.67701 11.7631 3.96899 11.4704L12.1977 3.22038ZM11.9788 8.70003L11.9788 5.56398L5.5593 12L11.9788 18.4361L11.9788 15.265C11.9788 14.7408 12.3783 14.2602 12.9541 14.2307C14.1419 14.1698 18.5994 14.2415 22.4721 18.2296C22.4509 17.8842 22.4155 17.5078 22.3594 17.1131C22.1358 15.5403 21.5967 13.7789 20.4116 12.5125C19.3395 11.3667 17.8007 10.681 16.3284 10.2791C14.8665 9.88003 13.5471 9.78148 12.9931 9.75755C12.4313 9.73328 11.9788 9.27226 11.9788 8.70003ZM8.44775 3.22035C8.74026 2.92708 9.21514 2.92647 9.50841 3.21899C9.80168 3.5115 9.80229 3.98638 9.50977 4.27965L1.8093 12L9.50977 19.7204C9.80229 20.0136 9.80168 20.4885 9.50841 20.781C9.21514 21.0735 8.74026 21.0729 8.44775 20.7796L0.218987 12.5296C-0.0729956 12.2369 -0.0729956 11.7631 0.218987 11.4704L8.44775 3.22035Z" fill="#0F0F0F"/>
</g>
</svg>

<svg xmlns="http://www.w3.org/2000/svg" width="24" height="24" viewBox="0 0 24 24">
  <g class="ic-reply-all">
    <path fill-rule="evenodd" d="M12.198 3.22a.75.75 0 0 1 1.28.53v4.533c.733.053 1.933.19 3.245.549 1.599.436 3.442 1.221 4.784 2.656 1.489 1.59 2.095 3.708 2.337 5.414.245 1.72.134 3.123.11 3.383a.761.761 0 0 1-.69.688.769.769 0 0 1-.684-.306c-3.305-4.429-7.491-4.93-9.101-4.947v4.53a.75.75 0 0 1-1.281.53l-8.229-8.25a.75.75 0 0 1 0-1.06l8.229-8.25Zm-.22 5.48V5.564L5.56 12l6.42 6.436v-3.171c0-.524.4-1.005.975-1.034 1.188-.061 5.645.01 9.518 3.999a14.087 14.087 0 0 0-.113-1.117c-.223-1.573-.762-3.334-1.947-4.6-1.072-1.146-2.611-1.832-4.084-2.234a15.795 15.795 0 0 0-3.335-.521A1.06 1.06 0 0 1 11.98 8.7Zm-3.53-5.48A.75.75 0 1 1 9.51 4.28L1.81 12l7.7 7.72a.75.75 0 1 1-1.062 1.06L.219 12.53a.75.75 0 0 1 0-1.06l8.229-8.25Z" class="Icon"/>
  </g>
</svg>
